public/location.svg

<svg width="20" height="26" viewBox="0 0 20 26" fill="none" xmlns="http://www.w3.org/2000/svg">
<path d="M9.86039 12.8417C10.535 12.8417 11.1126 12.6013 11.5934 12.1205C12.0742 11.6397 12.3142 11.0625 12.3134 10.3887C12.3134 9.71413 12.073 9.13644 11.5922 8.65565C11.1114 8.17486 10.5341 7.93488 9.86039 7.93569C9.18581 7.93569 8.60812 8.17609 8.12733 8.65688C7.64654 9.13767 7.40656 9.71495 7.40737 10.3887C7.40737 11.0633 7.64777 11.641 8.12856 12.1218C8.60935 12.6025 9.18663 12.8425 9.86039 12.8417ZM9.86039 25.1068C6.56926 22.3063 4.11134 19.7052 2.48663 17.3037C0.861922 14.9022 0.0491575 12.679 0.0483398 10.634C0.0483398 7.56774 1.03486 5.12495 3.0079 3.30564C4.98094 1.48632 7.2651 0.57666 9.86039 0.57666C12.4565 0.57666 14.7411 1.48632 16.7141 3.30564C18.6871 5.12495 19.6733 7.56774 19.6724 10.634C19.6724 12.6782 18.8597 14.9014 17.2341 17.3037C15.6086 19.7061 13.1507 22.3071 9.86039 25.1068Z" fill="white"/>
</svg>

<svg xmlns="http://www.w3.org/2000/svg" width="20" height="26" fill="none"><path fill="#fff" d="M9.86 12.842c.675 0 1.253-.24 1.733-.722.481-.48.721-1.057.72-1.731 0-.675-.24-1.253-.72-1.733a2.357 2.357 0 0 0-1.733-.72c-.674 0-1.252.24-1.733.72-.48.482-.72 1.059-.72 1.733 0 .674.24 1.252.722 1.733.48.48 1.058.72 1.731.72Zm0 12.265c-3.29-2.8-5.749-5.402-7.373-7.803C.862 14.902.049 12.679.048 10.634c0-3.066.987-5.51 2.96-7.328C4.98 1.486 7.265.576 9.86.576c2.597 0 4.881.91 6.854 2.73 1.973 1.819 2.96 4.262 2.958 7.328 0 2.044-.812 4.267-2.438 6.67-1.625 2.402-4.083 5.003-7.374 7.803Z"/></svg>
